frontend/public/svg/logos/tik tok.svg

<svg width="158" height="164" viewBox="0 0 158 164" fill="none" xmlns="http://www.w3.org/2000/svg">
<g clip-path="url(#clip0)">
<path d="M123.953 54.1511C132.152 56.842 138.958 57.868 145.383 57.3883C153.467 56.7818 157.753 52.1538 157.78 44.0061C157.791 40.3082 157.616 36.556 157.447 32.9278C157.398 31.9044 157.352 30.8813 157.308 29.8582C157.312 28.6956 156.928 27.5646 156.218 26.6445C155.507 25.7244 154.509 25.0676 153.383 24.778C151.854 24.3186 150.299 23.9459 148.728 23.6621C132.049 20.6463 119.212 14.1998 109.482 3.95374C107.83 2.24696 105.601 1.21739 103.23 1.06592H103.16C98.1428 1.13155 93.0654 1.66496 88.154 2.1815L85.6599 2.43948C82.7996 2.73155 81.078 4.60545 80.9382 7.57865C80.8726 8.94842 80.845 9.99679 80.8457 10.9767C80.849 17.8827 80.8582 24.7886 80.8733 31.6946C80.9028 48.0879 80.9336 65.0396 80.8326 81.7075C80.7853 89.5336 80.3685 97.4235 79.5921 105.157C79.4201 107.13 78.8511 109.048 77.9204 110.796C76.9897 112.544 75.7151 114.086 74.1747 115.33C72.4977 116.63 70.5766 117.578 68.5256 118.119C66.4745 118.66 64.335 118.782 62.2356 118.477C53.8102 117.413 49.2113 112.408 47.7608 102.725C46.9554 97.3526 48.0234 92.5042 50.8561 88.7021C53.6403 84.9609 57.8749 82.5876 63.1 81.8394C67.971 81.1417 69.4582 79.2449 68.9922 74.321C68.5945 70.1257 67.9578 65.891 67.3422 61.7967C66.9412 59.13 66.5264 56.3715 66.1824 53.6582C65.833 50.895 64.156 49.2543 61.1979 48.7824C59.3582 48.4967 57.4871 48.4779 55.6421 48.727C33.2151 51.7508 16.7212 63.378 6.61884 83.286C-0.666505 97.6368 -1.54137 114.11 4.21077 128.482C9.79555 142.439 20.99 152.996 35.7307 158.208C44.7922 161.472 54.3474 163.155 63.9789 163.183C74.2968 163.183 84.7476 161.218 95.486 157.289C108.174 152.644 115.621 143.16 117.616 129.102C120.399 109.497 120.84 93.0181 119.003 77.2411C118.338 71.5244 118.101 65.7664 117.851 59.6703C117.748 57.1546 117.641 54.5626 117.502 51.9097C118.217 52.1604 118.875 52.3927 119.492 52.6099C121.207 53.2164 122.561 53.6949 123.953 54.1511ZM106.363 59.346C106.486 70.8221 106.614 82.69 106.464 94.3551L106.455 95.0167C106.324 105.565 106.183 116.472 104.158 127.068C102.305 136.77 97.2968 142.877 88.8471 145.737C70.9691 151.786 54.5342 151.827 38.6003 145.859C16.3694 137.531 9.66757 117.031 12.8876 100.408C17.115 78.5886 29.4273 64.6906 49.483 59.0986C51.5833 58.5138 54.0774 57.8292 56.6129 57.1873C57.2192 57.0512 57.8327 56.9496 58.4505 56.8828C58.7018 56.8493 58.9757 56.8126 59.2789 56.7706L60.1714 72.9073C59.9365 73.0254 59.7178 73.1416 59.5104 73.2512C59.0502 73.5288 58.5555 73.7441 58.0389 73.8925C43.7747 76.995 35.6053 90.589 38.1723 106.95C38.8984 111.686 40.8773 116.144 43.904 119.859C46.9306 123.575 50.8951 126.415 55.3873 128.084C60.0838 129.881 65.171 130.411 70.1369 129.618C75.1027 128.825 79.7726 126.738 83.6758 123.567C89.2179 119.031 91.9175 113.367 91.483 107.188C90.9828 100.061 91.3123 92.8344 91.632 85.8457C91.8341 81.4049 92.0441 76.8138 92.0395 72.2844C92.029 60.6363 91.9831 48.7942 91.9385 37.3417C91.9168 31.9344 91.8971 26.5276 91.8787 21.1211C91.8722 19.152 91.8741 17.183 91.8787 15.1621V12.7165C94.4542 11.7432 96.9824 11.9118 99.4319 12.0772C100.351 12.1389 101.295 12.2019 102.223 12.2019H102.238L102.975 12.9332C112.699 22.5813 114.765 24.6285 145.992 34.9205L145.545 43.6221C145.348 43.7199 145.169 43.8189 145 43.9121C144.735 44.0818 144.444 44.2064 144.138 44.281C134.874 43.5879 124.193 42.3936 114.669 36.969C113.321 36.2751 111.898 35.7367 110.429 35.3647C109.621 35.1238 108.784 34.8744 107.87 34.56C107.775 34.5273 107.675 34.516 107.575 34.527C107.476 34.5379 107.38 34.5709 107.295 34.6234C107.21 34.6759 107.138 34.7468 107.083 34.8308C107.029 34.9147 106.994 35.0099 106.982 35.1089C106.862 36.0107 106.734 36.7997 106.617 37.5157C106.381 38.7276 106.245 39.9567 106.213 41.191C106.231 47.243 106.297 53.3957 106.361 59.346H106.363Z" fill="black"/>
</g>
<defs>
<clipPath id="clip0">
<rect width="157.521" height="162.772" fill="white" transform="translate(0.313965 0.73999)"/>
</clipPath>
</defs>
</svg>

<svg xmlns="http://www.w3.org/2000/svg" width="158" height="164" fill="none" viewBox="0 0 158 164"><g clip-path="url(#a)"><path fill="#000" d="M123.953 54.151c8.199 2.691 15.005 3.717 21.43 3.237 8.084-.606 12.37-5.234 12.397-13.382.011-3.698-.164-7.45-.333-11.078a632 632 0 0 1-.139-3.07 5.23 5.23 0 0 0-3.925-5.08 42 42 0 0 0-4.655-1.116c-16.679-3.016-29.516-9.462-39.246-19.708a9.55 9.55 0 0 0-6.252-2.888h-.07c-5.017.066-10.095.599-15.006 1.116l-2.494.257c-2.86.293-4.582 2.166-4.722 5.14a69 69 0 0 0-.092 3.398q.005 10.359.027 20.718c.03 16.393.06 33.345-.04 50.012a251 251 0 0 1-1.24 23.45 14.72 14.72 0 0 1-5.418 10.173 15.8 15.8 0 0 1-11.94 3.147c-8.425-1.064-13.024-6.069-14.474-15.752-.806-5.372.262-10.22 3.095-14.023 2.784-3.741 7.019-6.114 12.244-6.863 4.871-.697 6.358-2.594 5.892-7.518-.398-4.195-1.034-8.43-1.65-12.524-.4-2.667-.816-5.425-1.16-8.139-.349-2.763-2.026-4.404-4.984-4.876a19.3 19.3 0 0 0-5.556-.055C33.215 51.751 16.722 63.378 6.62 83.286c-7.286 14.35-8.16 30.824-2.408 45.196 5.585 13.957 16.779 24.514 31.52 29.726a84.1 84.1 0 0 0 28.248 4.975c10.318 0 20.769-1.965 31.507-5.894 12.688-4.645 20.135-14.129 22.13-28.187 2.783-19.605 3.224-36.084 1.387-51.86-.665-5.718-.902-11.476-1.152-17.572-.103-2.515-.21-5.107-.349-7.76.715.25 1.373.483 1.99.7 1.715.606 3.069 1.085 4.461 1.541m-17.59 5.195c.123 11.476.251 23.344.101 35.01l-.009.66c-.131 10.549-.272 21.456-2.297 32.052-1.853 9.702-6.861 15.809-15.31 18.669-17.879 6.049-34.314 6.09-50.248.122-22.23-8.328-28.932-28.828-25.712-45.451 4.227-21.82 16.54-35.717 36.595-41.31 2.1-.584 4.594-1.269 7.13-1.91q.91-.205 1.837-.305l.829-.112.892 16.136q-.35.179-.66.344c-.46.278-.956.493-1.472.641-14.264 3.103-22.434 16.697-19.867 33.058a26.89 26.89 0 0 0 17.215 21.134 28.64 28.64 0 0 0 28.289-4.517c5.542-4.536 8.242-10.2 7.807-16.379-.5-7.127-.17-14.354.149-21.342.202-4.441.412-9.032.407-13.562-.01-11.648-.056-23.49-.1-34.942q-.033-8.112-.06-16.22c-.007-1.97-.005-3.939 0-5.96v-2.446c2.575-.973 5.103-.804 7.553-.639.919.062 1.863.125 2.791.125h.015l.737.731c9.724 9.648 11.79 11.696 43.017 21.987l-.447 8.702q-.293.149-.545.29a2.9 2.9 0 0 1-.862.369c-9.264-.693-19.945-1.887-29.469-7.312a20 20 0 0 0-4.24-1.604c-.808-.241-1.645-.49-2.559-.805a.676.676 0 0 0-.787.27.7.7 0 0 0-.101.279c-.12.902-.248 1.69-.365 2.407a22 22 0 0 0-.404 3.675c.018 6.052.084 12.205.148 18.155z"/></g><defs><clipPath id="a"><path fill="#fff" d="M.314.74h157.521v162.772H.314z"/></clipPath></defs></svg>
